X:6261
T:Ginny and the Teepee
M:3/4
L:1/8
C:Eoin Duignan
S:Eoin Duignan
D:Coumineol
K:BMin
B2|g2gffe|d3 BBA|F2BFBF|ABBABF|~A3 FFE|\
DEFGAF|AdBABA|FGABde|fggffe|d3 BBA|F2BFBF|\
ABBABA|d3 efa|e3 dBA|B6|B4 d2::f4 a2|g2gffe|\
fefdBA|FGABde|f2fedB|a b3 a2|a3 ggf|f4 ga|f3 d B2|\
B3 dge|f3 d B2|B3 dge|b3 aaf|e3 dBA|B6|B4 d2:|
